img/social/whatsapp.svg

<svg width="22" height="22" viewBox="0 0 22 22" fill="none" xmlns="http://www.w3.org/2000/svg">
<path fill-rule="evenodd" clip-rule="evenodd" d="M18.5833 3.28133C16.5521 1.25008 13.8437 0.166748 11 0.166748C5.04166 0.166748 0.166664 5.04175 0.166664 11.0001C0.166664 12.8959 0.708339 14.7917 1.65626 16.4167L0.166664 21.8334L5.85418 20.3438C7.47918 21.1563 9.23958 21.698 11 21.698C16.9583 21.698 21.8333 16.823 21.8333 10.8647C21.8333 8.02091 20.6146 5.31258 18.5833 3.28133ZM11 19.9376C9.375 19.9376 7.75001 19.5313 6.39584 18.7188L6.12499 18.5834L2.73957 19.5313L3.68751 16.2813L3.41666 15.8751C2.46874 14.3855 2.06249 12.7605 2.06249 11.1355C2.06249 6.2605 6.125 2.198 11 2.198C13.4375 2.198 15.6042 3.14591 17.3646 4.77091C19.125 6.53133 19.9375 8.698 19.9375 11.1355C19.9375 15.8751 16.0104 19.9376 11 19.9376ZM15.875 13.1667C15.6042 13.0313 14.25 12.3542 13.9792 12.3542C13.7083 12.2188 13.5729 12.2188 13.4375 12.4897C13.3021 12.7605 12.7604 13.3022 12.625 13.573C12.4896 13.7084 12.3541 13.7084 12.0833 13.7084C11.8125 13.573 11 13.3022 9.91668 12.3542C9.10418 11.6772 8.56251 10.7292 8.42709 10.4584C8.29167 10.1876 8.4271 10.0522 8.56251 9.91675C8.69793 9.78133 8.83333 9.64591 8.96875 9.5105C9.10417 9.37508 9.10418 9.23967 9.2396 9.10425C9.37501 8.96883 9.2396 8.83342 9.2396 8.698C9.2396 8.56258 8.69792 7.20841 8.42709 6.66675C8.29167 6.2605 8.02085 6.2605 7.88543 6.2605C7.75001 6.2605 7.61456 6.2605 7.34373 6.2605C7.20831 6.2605 6.93748 6.2605 6.66665 6.53133C6.39581 6.80216 5.71876 7.47925 5.71876 8.83341C5.71876 10.1876 6.66666 11.4063 6.80207 11.6772C6.93749 11.8126 8.6979 14.6563 11.4062 15.7397C13.7083 16.6876 14.1146 16.4167 14.6563 16.4167C15.1979 16.4167 16.2812 15.7397 16.4167 15.198C16.6875 14.5209 16.6875 13.9792 16.5521 13.9792C16.4167 13.3022 16.1458 13.3022 15.875 13.1667Z" fill="white"/>
</svg>

<svg width="22" height="22" fill="none" xmlns="http://www.w3.org/2000/svg"><path fill-rule="evenodd" clip-rule="evenodd" d="M18.583 3.281C16.553 1.251 13.843.167 11 .167 5.042.167.167 5.042.167 11c0 1.896.541 3.792 1.49 5.417l-1.49 5.416 5.687-1.49c1.625.813 3.386 1.355 5.146 1.355 5.958 0 10.833-4.875 10.833-10.833 0-2.844-1.218-5.552-3.25-7.584ZM11 19.938c-1.625 0-3.25-.407-4.604-1.22l-.271-.135-3.385.948.948-3.25-.271-.406c-.948-1.49-1.355-3.114-1.355-4.74 0-4.874 4.063-8.937 8.938-8.937 2.438 0 4.604.948 6.365 2.573 1.76 1.76 2.573 3.927 2.573 6.365 0 4.74-3.928 8.802-8.938 8.802Zm4.875-6.771c-.27-.136-1.625-.813-1.896-.813-.27-.135-.406-.135-.541.136-.136.27-.678.812-.813 1.083-.135.135-.27.135-.542.135-.27-.135-1.083-.406-2.166-1.354-.813-.677-1.354-1.625-1.49-1.896-.135-.27 0-.406.136-.541l.406-.406c.135-.136.135-.271.27-.407.136-.135 0-.27 0-.406 0-.135-.541-1.49-.812-2.031-.135-.406-.406-.406-.542-.406h-.541c-.136 0-.407 0-.677.27-.271.271-.948.948-.948 2.302 0 1.355.948 2.573 1.083 2.844.135.136 1.896 2.98 4.604 4.063 2.302.948 2.709.677 3.25.677.542 0 1.625-.677 1.76-1.219.271-.677.271-1.219.136-1.219-.135-.677-.406-.677-.677-.812Z" fill="#fff"/></svg>
